docs/img/svg/personal-area.svg

<svg width="22" height="25" viewBox="0 0 22 25" fill="none" xmlns="http://www.w3.org/2000/svg">
<mask id="path-1-inside-1" fill="white">
<path fill-rule="evenodd" clip-rule="evenodd" d="M4.21875 6.39508C4.21875 2.86883 7.05755 0 10.5469 0C14.0362 0 16.875 2.86883 16.875 6.39508C16.875 9.92132 14.0362 12.7902 10.5469 12.7902C7.05755 12.7902 4.21875 9.92132 4.21875 6.39508ZM11.9531 14.2113C14.391 14.2113 16.6878 15.1903 18.4203 16.968C20.1443 18.737 21.0938 21.0721 21.0938 23.5433C21.0938 23.9358 20.7789 24.2539 20.3906 24.2539H0.703125C0.314812 24.2539 0 23.9358 0 23.5433C0 21.0721 0.949453 18.737 2.67347 16.968C4.40597 15.1903 6.70275 14.2113 9.14062 14.2113H11.9531Z"/>
</mask>
<path d="M18.4203 16.968L16.988 18.3639L16.988 18.3639L18.4203 16.968ZM2.67347 16.968L4.10578 18.3639L4.10579 18.3639L2.67347 16.968ZM10.5469 -2C5.93319 -2 2.21875 1.78416 2.21875 6.39508H6.21875C6.21875 3.9535 8.18191 2 10.5469 2V-2ZM18.875 6.39508C18.875 1.78416 15.1606 -2 10.5469 -2V2C12.9118 2 14.875 3.9535 14.875 6.39508H18.875ZM10.5469 14.7902C15.1606 14.7902 18.875 11.006 18.875 6.39508H14.875C14.875 8.83665 12.9118 10.7902 10.5469 10.7902V14.7902ZM2.21875 6.39508C2.21875 11.006 5.93319 14.7902 10.5469 14.7902V10.7902C8.18191 10.7902 6.21875 8.83665 6.21875 6.39508H2.21875ZM19.8526 15.5722C17.7514 13.4161 14.9414 12.2113 11.9531 12.2113V16.2113C13.8407 16.2113 15.6242 16.9645 16.988 18.3639L19.8526 15.5722ZM23.0938 23.5433C23.0938 20.5509 21.9408 17.7148 19.8526 15.5722L16.988 18.3639C18.3478 19.7593 19.0938 21.5934 19.0938 23.5433H23.0938ZM20.3906 26.2539C21.9033 26.2539 23.0938 25.0204 23.0938 23.5433H19.0938C19.0938 22.8511 19.6546 22.2539 20.3906 22.2539V26.2539ZM0.703125 26.2539H20.3906V22.2539H0.703125V26.2539ZM-2 23.5433C-2 25.0204 -0.80955 26.2539 0.703125 26.2539V22.2539C1.43917 22.2539 2 22.8511 2 23.5433H-2ZM1.24115 15.5722C-0.847004 17.7148 -2 20.5509 -2 23.5433H2C2 21.5934 2.74591 19.7593 4.10578 18.3639L1.24115 15.5722ZM9.14062 12.2113C6.15243 12.2113 3.34238 13.4161 1.24115 15.5722L4.10579 18.3639C5.46955 16.9645 7.25307 16.2113 9.14062 16.2113V12.2113ZM11.9531 12.2113H9.14062V16.2113H11.9531V12.2113Z" fill="#E5E5E5" mask="url(#path-1-inside-1)"/>
</svg>

<svg width="22" height="25" viewBox="0 0 22 25" fill="none" xmlns="http://www.w3.org/2000/svg"><mask id="path-1-inside-1" fill="#fff"><path fill-rule="evenodd" clip-rule="evenodd" d="M4.219 6.395C4.219 2.87 7.058 0 10.547 0c3.49 0 6.328 2.869 6.328 6.395 0 3.526-2.839 6.395-6.328 6.395-3.49 0-6.328-2.869-6.328-6.395zm7.734 7.816c2.438 0 4.735.98 6.467 2.757a9.37 9.37 0 012.674 6.575c0 .393-.315.71-.703.71H.703a.707.707 0 01-.703-.71 9.37 9.37 0 012.673-6.575c1.733-1.778 4.03-2.757 6.468-2.757h2.812z"/></mask><path d="M18.42 16.968l-1.432 1.396 1.432-1.396zm-15.747 0l1.433 1.396-1.433-1.396zM10.547-2C5.933-2 2.219 1.784 2.219 6.395h4C6.219 3.954 8.182 2 10.547 2v-4zm8.328 8.395c0-4.61-3.714-8.395-8.328-8.395v4c2.365 0 4.328 1.954 4.328 4.395h4zm-8.328 8.395c4.614 0 8.328-3.784 8.328-8.395h-4c0 2.442-1.963 4.395-4.328 4.395v4zM2.219 6.395c0 4.611 3.714 8.395 8.328 8.395v-4c-2.365 0-4.328-1.953-4.328-4.395h-4zm17.634 9.177c-2.102-2.156-4.912-3.36-7.9-3.36v4c1.888 0 3.671.753 5.035 2.152l2.865-2.792zm3.24 7.971a11.37 11.37 0 00-3.24-7.97l-2.865 2.79a7.371 7.371 0 012.106 5.18h4zm-2.702 2.71a2.707 2.707 0 002.703-2.71h-4c0-.692.56-1.29 1.297-1.29v4zm-19.688 0h19.688v-4H.703v4zM-2 23.544c0 1.477 1.19 2.71 2.703 2.71v-4c.736 0 1.297.598 1.297 1.29h-4zm3.241-7.97A11.37 11.37 0 00-2 23.542h4a7.37 7.37 0 012.106-5.18l-2.865-2.79zm7.9-3.362c-2.989 0-5.799 1.205-7.9 3.361l2.865 2.792c1.364-1.4 3.147-2.153 5.035-2.153v-4zm2.812 0H9.141v4h2.812v-4z" fill="#E5E5E5" mask="url(#path-1-inside-1)"/></svg>
